icons/qr-scan-2-line.svg

<svg xmlns="http://www.w3.org/2000/svg" viewBox="0 0 24 24">
    <g>
        <path fill="none" d="M0 0h24v24H0z"/>
        <path d="M15 3h6v5h-2V5h-4V3zM9 3v2H5v3H3V3h6zm6 18v-2h4v-3h2v5h-6zm-6 0H3v-5h2v3h4v2zM3 11h18v2H3v-2z"/>
    </g>
</svg>

<svg viewBox="0 0 24 24" fill="currentColor" xmlns="http://www.w3.org/2000/svg"><path d="M15 3H21V8H19V5H15V3ZM9 3V5H5V8H3V3H9ZM15 21V19H19V16H21V21H15ZM9 21H3V16H5V19H9V21ZM3 11H21V13H3V11Z"/></svg>
